!!!OTL: City of Baltimore
!!!ONM: 58.
**kern
*clefG2
*k[] 
*C:
*M6/8
*MM80
{8G
=1
4c
8e
(8f
8e)
8d
=2
4g
8a
4g}
{8c
=3
(8c
8A)
8B
4c
8B
=4
4.c
4r}
{8g
=5
4cc
8cc
8b
8a
8g
=6
4a
8d
4d}
{8c
=7
4e
8g
4b
8a
=8
4.g
4r}
{8cc
=9
4cc
8cc
(8b
8a)
8g
=10
4a
8d
4d}
{8c
=11
4e
8g
4b
8a
=12
4.g
4r}
{8G
=13
4c
16e
16e
(8f
8e)
8d
=14
4g
8a
4g}
{8c
=15
[8c
8A]
8B
4c
8B
=16
4.c
4r}
==
*-
!!!CNT: Folksongs of Maritime Canada
!!!MRD: 1928///-1932///
!!!OCL: Helen Creighton
!!!YOR: Songs and Ballads from Nova Scotia
!!!PPR: J.M. Dent & Sons, Limited
!!!PPP: Toronto, Canada
!!!PDT: 1932///
!!!reprint: Dover Publications, 1992: ISBN 0-486-21703-5
!!!ENC1: Craig Stuart Sapp (music and bibliographic data)                       
!!!ENC2: Marcus Pearce (phrase markings and key designations)                   
!!!ENC3: Darrell Conklin (phrase markings and key designations)   
!!!END: 2002/04/10/
!!!EEV: 2004/06/05
!!!MPN: Mr. Ben Henneberry
!!!PPG: 117
!!!EFL: 59/152
!!!ARE: Canada; Nova Scotia
!!!verses: 9
!!!VTS: 3090933748
